svgs/regular/signal-bars-weak.svg

<svg xmlns="http://www.w3.org/2000/svg" viewBox="0 0 576 512"><!-- Font Awesome Pro 6.0.0-alpha2 by @fontawesome - https://fontawesome.com License - https://fontawesome.com/license (Commercial License) --><path d="M96 384H32C14.328 384 0 398.328 0 416V480C0 497.672 14.328 512 32 512H96C113.674 512 128 497.672 128 480V416C128 398.328 113.674 384 96 384ZM80 464H48V432H80V464Z"/></svg>

<svg xmlns="http://www.w3.org/2000/svg" viewBox="0 0 576 512"><!--! Font Awesome Pro 6.0.0-alpha3 by @fontawesome - https://fontawesome.com License - https://fontawesome.com/license (Commercial License) --><path d="M96 384H32c-17.67 0-32 14.33-32 32v64c0 17.67 14.33 32 32 32h64c17.67 0 32-14.33 32-32v-64C128 398.3 113.7 384 96 384zM80 464h-32v-32h32V464z"/></svg>
